images/sc2/RSTICK.svg

<?xml version='1.0' encoding='utf-8'?>
<svg xmlns="http://www.w3.org/2000/svg" viewBox="812.042 263.612 227.443 223.203" width="90.9772" height="89.2813"><path d="M 924.8148 276.8046 C 916.2509 277.1407 907.6078 278.6387 899.0492 281.3379 C 862.5955 292.8342 837.2250 321.9909 830.9789 359.5643 C 825.8804 390.2346 835.9408 420.8922 858.7992 444.3417 C 872.9372 458.8454 888.2870 467.4765 907.5257 471.7382 C 920.5833 474.6307 942.9307 473.8666 954.5257 470.1327 C 985.2780 460.2295 1007.6628 439.3045 1018.9574 409.9004 C 1024.3017 395.9873 1025.8567 386.3555 1025.2191 371.1327 C 1024.5703 355.6445 1022.2860 346.1690 1015.9691 332.7811 C 1010.3212 320.8110 1004.6277 312.8813 995.3988 304.1288 C 975.4924 285.2499 950.5066 275.7963 924.8148 276.8046 Z  M 932.9730 281.9139 C 952.8221 282.8897 970.6142 291.3308 984.8050 306.5018 C 1005.1928 328.2980 1011.4378 357.8642 1001.6488 386.2636 C 997.8928 397.1606 993.5354 404.3764 985.5511 412.9219 C 974.1971 425.0738 961.5745 432.6559 946.1156 436.6093 C 935.7236 439.2668 920.1160 439.2477 909.1878 436.5623 C 887.2047 431.1607 866.4521 413.5829 857.1429 392.4803 C 844.4488 363.7043 850.2435 330.0421 871.8714 306.9217 C 888.5417 289.1012 908.9831 280.7344 932.9730 281.9138 Z  M 890.9359 288.6327 C 890.9664 288.6327 890.9876 288.6427 891.0004 288.6507 L 891.0024 288.6507 C 891.0044 288.6507 891.0074 288.6607 891.0084 288.6607 C 891.1207 288.9396 888.3609 291.0125 884.5260 293.5044 C 871.0293 302.2744 859.6900 315.8127 853.2271 330.8716 C 839.6708 362.4588 847.2630 397.3827 872.9010 421.3658 C 881.1673 429.0985 890.6972 434.7869 902.1119 438.7994 C 909.7492 441.4841 912.8150 441.9987 923.5260 442.3990 C 941.1727 443.0585 949.7928 441.2942 964.5260 434.0084 C 974.9730 428.8422 976.9520 427.3960 986.1412 418.2154 C 995.2599 409.1051 996.7536 407.0755 1001.2955 397.6197 C 1008.0029 383.6559 1010.0469 375.0356 1009.9479 361.1314 C 1009.8899 352.9904 1009.2890 348.0522 1007.6354 342.1314 C 1002.2901 322.9929 989.5172 305.0215 973.5260 294.1392 C 971.0563 292.4586 969.5260 291.2217 969.6197 291.0181 C 969.6202 291.0172 969.6227 291.0081 969.6237 291.0081 L 969.6257 291.0081 L 969.6277 291.0081 C 969.6622 290.9771 969.7658 290.9851 969.9383 291.0431 C 973.3687 292.2059 984.8878 300.3421 991.1766 306.0431 C 1016.4944 328.9943 1027.3002 366.5251 1018.0145 399.2580 C 1008.6315 432.3339 983.0805 457.9961 950.9051 466.6564 C 942.0523 469.0392 921.3481 470.1339 913.1863 468.6505 C 883.5058 463.2562 857.6704 443.8872 844.2039 416.9318 C 824.2262 376.9432 834.2712 330.5566 869.0848 302.0294 C 873.9231 298.0648 889.3091 288.6309 890.9363 288.6311 Z  M 924.9769 294.9413 C 896.2016 296.5543 872.0649 316.3449 865.0355 344.0917 C 863.0885 351.7772 863.0962 367.5362 865.0511 375.1719 C 867.8490 386.1008 873.7257 396.7874 881.3343 404.7792 C 891.4660 415.4213 903.6885 422.0489 917.8890 424.6054 C 924.7630 425.8430 938.7375 425.0625 945.5257 423.0604 C 979.4305 413.0605 1000.0341 377.6667 991.5238 344.0430 C 988.3461 331.4881 984.1961 324.2801 974.5413 314.5527 C 967.7276 307.6879 964.3274 305.1379 957.5257 301.7851 C 946.4433 296.3220 936.7408 294.2819 924.9769 294.9413 Z  M 927.9984 299.2969 C 948.0332 299.0768 967.1370 308.7516 979.0414 326.6581 C 987.3091 339.0947 990.8832 354.2167 988.7660 367.8026 C 987.3796 376.6992 982.8096 388.1137 978.0257 394.6307 C 969.6298 406.0682 955.7118 415.7854 942.9730 419.1034 C 935.1074 421.1522 919.7397 420.9841 912.0257 418.7636 C 902.2294 415.9437 893.6165 410.7826 885.9847 403.1620 C 866.9211 384.1265 862.3455 356.8371 874.1586 332.6327 C 878.9833 322.7473 891.0338 310.5974 900.6898 305.8847 C 909.5919 301.5399 918.8917 299.3967 927.9984 299.2969 Z " style="fill:#000000" /></svg>

<svg xmlns="http://www.w3.org/2000/svg" width="90.977" height="89.281" viewBox="812.042 263.612 227.443 223.203"><path d="M924.815 276.805c-8.564.336-17.207 1.834-25.766 4.533-36.453 11.496-61.824 40.653-68.07 78.226-5.099 30.67 4.962 61.328 27.82 84.778 14.138 14.503 29.488 23.135 48.727 27.396 13.057 2.893 35.405 2.129 47-1.605 30.752-9.904 53.137-30.828 64.431-60.233 5.345-13.913 6.9-23.544 6.262-38.767-.649-15.488-2.933-24.964-9.25-38.352-5.648-11.97-11.341-19.9-20.57-28.652-19.907-18.88-44.892-28.333-70.584-27.324m8.158 5.109c19.85.976 37.641 9.417 51.832 24.588 20.388 21.796 26.633 51.362 16.844 79.762-3.756 10.897-8.114 18.112-16.098 26.658-11.354 12.152-23.977 19.734-39.435 23.687-10.392 2.658-26 2.639-36.928-.047-21.983-5.401-42.736-22.98-52.045-44.082-12.694-28.776-6.9-62.438 14.728-85.558 16.67-17.82 37.112-26.188 61.102-25.008m-42.037 6.719c.03 0 .052.01.064.018h.002c.002 0 .005.01.006.01.113.279-2.647 2.351-6.482 4.843-13.497 8.77-24.836 22.309-31.299 37.368-13.556 31.587-5.964 66.51 19.674 90.494 8.266 7.733 17.796 13.42 29.21 17.433 7.638 2.685 10.704 3.2 21.415 3.6 17.647.66 26.267-1.105 41-8.39 10.447-5.167 12.426-6.613 21.615-15.794 9.119-9.11 10.613-11.14 15.154-20.595 6.708-13.964 8.752-22.584 8.653-36.489-.058-8.14-.659-13.079-2.313-19-5.345-19.138-18.118-37.11-34.109-47.992-2.47-1.68-4-2.917-3.906-3.12l.004-.01h.004c.034-.032.138-.024.31.034 3.43 1.163 14.95 9.3 21.239 15 25.317 22.951 36.123 60.482 26.837 93.215-9.383 33.076-34.933 58.738-67.109 67.398-8.853 2.383-29.557 3.478-37.719 1.995-29.68-5.395-55.516-24.764-68.982-51.72-19.978-39.988-9.933-86.374 24.88-114.902 4.84-3.964 20.225-13.398 21.852-13.398Zm34.04 6.308c-28.774 1.613-52.911 21.404-59.94 49.15-1.947 7.686-1.94 23.445.015 31.08 2.798 10.93 8.675 21.616 16.283 29.608 10.132 10.642 22.355 17.27 36.555 19.826 6.874 1.238 20.848.457 27.637-1.545 33.905-10 54.508-45.393 45.998-79.017-3.178-12.555-7.328-19.763-16.983-29.49-6.813-6.865-10.214-9.415-17.015-12.768-11.083-5.463-20.785-7.503-32.55-6.844m3.022 4.356c20.035-.22 39.139 9.455 51.043 27.361 8.268 12.437 11.842 27.559 9.725 41.145-1.386 8.896-5.956 20.31-10.74 26.828-8.396 11.437-22.314 21.154-35.053 24.472-7.866 2.05-23.233 1.881-30.947-.34-9.797-2.82-18.41-7.98-26.041-15.601-19.064-19.035-23.64-46.325-11.826-70.53 4.824-9.885 16.875-22.035 26.53-26.747 8.903-4.345 18.203-6.488 27.31-6.588" style="fill:#000"/></svg>
